X:72
L:1/16
Q:1/4=76
M:2/4
K:G
|: G2DE G2e2 | .d.B(AG) .A.F(ED) | G2DE G2e2 | dBcA G4 :: d2Bc d2g2 | fafd ege^c | d2Bc d2g2 | 
 fae^c d4 | dgfe edcB | cAdG GFED | G2DE G2e2 | dBcA G4 :|

